X:36
T:Chibreli
R:
S:
N:
A:Champagne
G:
O:France
Z:<anamnese@laposte.net>
M:2/4
L:1/8
Q:1/4=135
K:D
cc | cB/c/ dc | B2 BB | BA/B/ cB | A2 cc | cB/c/ dc | B2 BB | AB/c/ BA |
%variation : | B2 BB | Bd/c/ Bc |
A2 cd | e2 cd | e2e2 | fe dc | c2B2 | cde2 | cde2 | ee fe | dB A2 ||
